app/assets/images/icons/active/train.svg

<svg width="32" height="232" viewBox="0 0 32 232" xmlns="http://www.w3.org/2000/svg" xmlns:sketch="http://www.bohemiancoding.com/sketch/ns"><title>train</title><g sketch:type="MSPage" fill="none"><path d="M11.928 143.731h8.144l3.741 4.519c.265.412.732.672 1.228.672.799 0 1.459-.666 1.459-1.461 0-.303-.097-.606-.273-.846l-2.704-2.884h.245c1.509 0 2.732-1.057 2.732-2.331v-5.963l-1.973-11.109c0-1.281-1.228-2.328-2.734-2.328h-11.875c-1.508 0-2.737 1.047-2.737 2.328l-1.593 11.041v6.031c0 1.274 1.227 2.331 2.733 2.331h.156l-2.703 2.884c-.177.24-.274.543-.274.846 0 .795.66 1.461 1.459 1.461.496 0 .963-.26 1.228-.672l3.741-4.519zm-2.363-18.36c0-.646.609-1.156 1.364-1.156h9.849c.751 0 1.367.51 1.367 1.156l1.97 10.289c0 .635-.603 1.168-1.357 1.168h-13.429c-.753 0-1.362-.533-1.362-1.168l1.598-10.289zm.447 16.912c-1.157 0-2.099-.955-2.099-2.099 0-1.157.942-2.102 2.099-2.102 1.154 0 2.095.945 2.095 2.102 0 1.144-.941 2.099-2.095 2.099zm12.278 0c-1.151 0-2.092-.955-2.092-2.099 0-1.157.941-2.102 2.092-2.102 1.157 0 2.096.945 2.096 2.102 0 1.144-.939 2.099-2.096 2.099zm0 0" fill="#206FAC" sketch:type="MSShapeGroup"/><path d="M11.928 103.731h8.144l3.741 4.519c.265.412.732.672 1.228.672.799 0 1.459-.666 1.459-1.461 0-.303-.097-.606-.273-.846l-2.704-2.884h.245c1.509 0 2.732-1.057 2.732-2.331v-5.963l-1.973-11.109c0-1.281-1.228-2.328-2.734-2.328h-11.875c-1.508 0-2.737 1.047-2.737 2.328l-1.593 11.041v6.031c0 1.274 1.227 2.331 2.733 2.331h.156l-2.703 2.884c-.177.24-.274.543-.274.846 0 .795.66 1.461 1.459 1.461.496 0 .963-.26 1.228-.672l3.741-4.519zm-2.363-18.36c0-.646.609-1.156 1.364-1.156h9.849c.751 0 1.367.51 1.367 1.156l1.97 10.289c0 .635-.603 1.168-1.357 1.168h-13.429c-.753 0-1.362-.533-1.362-1.168l1.598-10.289zm.447 16.912c-1.157 0-2.099-.955-2.099-2.099 0-1.157.942-2.102 2.099-2.102 1.154 0 2.095.945 2.095 2.102 0 1.144-.941 2.099-2.095 2.099zm12.278 0c-1.151 0-2.092-.955-2.092-2.099 0-1.157.941-2.102 2.092-2.102 1.157 0 2.096.945 2.096 2.102 0 1.144-.939 2.099-2.096 2.099zm0 0" fill="#fff" sketch:type="MSShapeGroup"/><path d="M11.928 63.731h8.144l3.741 4.519c.265.412.732.672 1.228.672.799 0 1.459-.666 1.459-1.461 0-.303-.097-.606-.273-.846l-2.704-2.884h.245c1.509 0 2.732-1.057 2.732-2.331v-5.963l-1.973-11.109c0-1.281-1.228-2.328-2.734-2.328h-11.875c-1.508 0-2.737 1.047-2.737 2.328l-1.593 11.041v6.031c0 1.274 1.227 2.331 2.733 2.331h.156l-2.703 2.884c-.177.24-.274.543-.274.846 0 .795.66 1.461 1.459 1.461.496 0 .963-.26 1.228-.672l3.741-4.519zm-2.363-18.36c0-.646.609-1.156 1.364-1.156h9.849c.751 0 1.367.51 1.367 1.156l1.97 10.289c0 .635-.603 1.168-1.357 1.168h-13.429c-.753 0-1.362-.533-1.362-1.168l1.598-10.289zm.447 16.912c-1.157 0-2.099-.955-2.099-2.099 0-1.157.942-2.102 2.099-2.102 1.154 0 2.095.945 2.095 2.102 0 1.144-.941 2.099-2.095 2.099zm12.278 0c-1.151 0-2.092-.955-2.092-2.099 0-1.157.941-2.102 2.092-2.102 1.157 0 2.096.945 2.096 2.102 0 1.144-.939 2.099-2.096 2.099zm0 0" fill="#67737B" sketch:type="MSShapeGroup"/><path d="M11.928 23.731h8.144l3.741 4.519c.265.412.732.672 1.228.672.799 0 1.459-.666 1.459-1.461 0-.303-.097-.606-.273-.846l-2.704-2.884h.245c1.509 0 2.732-1.057 2.732-2.331v-5.963l-1.973-11.109c0-1.281-1.228-2.328-2.734-2.328h-11.875c-1.508 0-2.737 1.047-2.737 2.328l-1.593 11.041v6.031c0 1.274 1.227 2.331 2.733 2.331h.156l-2.703 2.884c-.177.24-.274.543-.274.846 0 .795.66 1.461 1.459 1.461.496 0 .963-.26 1.228-.672l3.741-4.519zm-2.363-18.36c0-.646.609-1.156 1.364-1.156h9.849c.751 0 1.367.51 1.367 1.156l1.97 10.289c0 .635-.603 1.168-1.357 1.168h-13.429c-.753 0-1.362-.533-1.362-1.168l1.598-10.289zm.447 16.912c-1.157 0-2.099-.955-2.099-2.099 0-1.157.942-2.102 2.099-2.102 1.154 0 2.095.945 2.095 2.102 0 1.144-.941 2.099-2.095 2.099zm12.278 0c-1.151 0-2.092-.955-2.092-2.099 0-1.157.941-2.102 2.092-2.102 1.157 0 2.096.945 2.096 2.102 0 1.144-.939 2.099-2.096 2.099zm0 0" fill="#3A434E" sketch:type="MSShapeGroup"/></g></svg>

<?xml version="1.0" encoding="UTF-8" standalone="no"?>
<svg width="32px" height="232px" viewBox="0 0 32 232" version="1.1" xmlns="http://www.w3.org/2000/svg" xmlns:xlink="http://www.w3.org/1999/xlink" xmlns:sketch="http://www.bohemiancoding.com/sketch/ns">
    <title>train</title>
    <description>Created with Sketch (http://www.bohemiancoding.com/sketch)</description>
    <defs></defs>
    <g id="Transport" stroke="none" stroke-width="1" fill="none" fill-rule="evenodd" sketch:type="MSPage">
        <path d="M11.9278421,143.731 L20.0721579,143.731 L20.0721579,143.731 L23.813,148.25 C24.078,148.662 24.545,148.922 25.041,148.922 C25.84,148.922 26.5,148.256 26.5,147.461 C26.5,147.158 26.403,146.855 26.227,146.615 L23.5230081,143.731 L23.768,143.731 C25.277,143.731 26.5,142.674 26.5,141.4 L26.5,135.437 L24.527,124.328 C24.527,123.047 23.299,122 21.793,122 L9.918,122 C8.41,122 7.181,123.047 7.181,124.328 L5.588,135.369 L5.588,141.4 C5.588,142.674 6.815,143.731 8.321,143.731 L8.47702416,143.731 L5.774,146.615 C5.597,146.855 5.5,147.158 5.5,147.461 C5.5,148.256 6.16,148.922 6.959,148.922 C7.455,148.922 7.922,148.662 8.187,148.25 L11.9278421,143.731 Z M9.565,125.371 C9.565,124.725 10.174,124.215 10.929,124.215 L20.778,124.215 C21.529,124.215 22.145,124.725 22.145,125.371 L24.115,135.66 C24.115,136.295 23.512,136.828 22.758,136.828 L9.329,136.828 C8.576,136.828 7.967,136.295 7.967,135.66 L9.565,125.371 Z M10.012,142.283 C8.855,142.283 7.913,141.328 7.913,140.184 C7.913,139.027 8.855,138.082 10.012,138.082 C11.166,138.082 12.107,139.027 12.107,140.184 C12.107,141.328 11.166,142.283 10.012,142.283 Z M22.29,142.283 C21.139,142.283 20.198,141.328 20.198,140.184 C20.198,139.027 21.139,138.082 22.29,138.082 C23.447,138.082 24.386,139.027 24.386,140.184 C24.386,141.328 23.447,142.283 22.29,142.283 Z M22.29,142.283" id="train--white" fill="#206FAC" sketch:type="MSShapeGroup"></path>
        <path d="M11.9278421,103.731 L20.0721579,103.731 L20.0721579,103.731 L23.813,108.25 C24.078,108.662 24.545,108.922 25.041,108.922 C25.84,108.922 26.5,108.256 26.5,107.461 C26.5,107.158 26.403,106.855 26.227,106.615 L23.5230081,103.731 L23.768,103.731 C25.277,103.731 26.5,102.674 26.5,101.4 L26.5,95.437 L24.527,84.328 C24.527,83.047 23.299,82 21.793,82 L9.918,82 C8.41,82 7.181,83.047 7.181,84.328 L5.588,95.369 L5.588,101.4 C5.588,102.674 6.815,103.731 8.321,103.731 L8.47702416,103.731 L5.774,106.615 C5.597,106.855 5.5,107.158 5.5,107.461 C5.5,108.256 6.16,108.922 6.959,108.922 C7.455,108.922 7.922,108.662 8.187,108.25 L11.9278421,103.731 Z M9.565,85.371 C9.565,84.725 10.174,84.215 10.929,84.215 L20.778,84.215 C21.529,84.215 22.145,84.725 22.145,85.371 L24.115,95.66 C24.115,96.295 23.512,96.828 22.758,96.828 L9.329,96.828 C8.576,96.828 7.967,96.295 7.967,95.66 L9.565,85.371 Z M10.012,102.283 C8.855,102.283 7.913,101.328 7.913,100.184 C7.913,99.027 8.855,98.082 10.012,98.082 C11.166,98.082 12.107,99.027 12.107,100.184 C12.107,101.328 11.166,102.283 10.012,102.283 Z M22.29,102.283 C21.139,102.283 20.198,101.328 20.198,100.184 C20.198,99.027 21.139,98.082 22.29,98.082 C23.447,98.082 24.386,99.027 24.386,100.184 C24.386,101.328 23.447,102.283 22.29,102.283 Z M22.29,102.283" id="train--subdued-grey" fill="#FFFFFF" sketch:type="MSShapeGroup"></path>
        <path d="M11.9278421,63.731 L20.0721579,63.731 L20.0721579,63.731 L23.813,68.25 C24.078,68.662 24.545,68.922 25.041,68.922 C25.84,68.922 26.5,68.256 26.5,67.461 C26.5,67.158 26.403,66.855 26.227,66.615 L23.5230081,63.731 L23.768,63.731 C25.277,63.731 26.5,62.674 26.5,61.4 L26.5,55.437 L24.527,44.328 C24.527,43.047 23.299,42 21.793,42 L9.918,42 C8.41,42 7.181,43.047 7.181,44.328 L5.588,55.369 L5.588,61.4 C5.588,62.674 6.815,63.731 8.321,63.731 L8.47702416,63.731 L5.774,66.615 C5.597,66.855 5.5,67.158 5.5,67.461 C5.5,68.256 6.16,68.922 6.959,68.922 C7.455,68.922 7.922,68.662 8.187,68.25 L11.9278421,63.731 Z M9.565,45.371 C9.565,44.725 10.174,44.215 10.929,44.215 L20.778,44.215 C21.529,44.215 22.145,44.725 22.145,45.371 L24.115,55.66 C24.115,56.295 23.512,56.828 22.758,56.828 L9.329,56.828 C8.576,56.828 7.967,56.295 7.967,55.66 L9.565,45.371 Z M10.012,62.283 C8.855,62.283 7.913,61.328 7.913,60.184 C7.913,59.027 8.855,58.082 10.012,58.082 C11.166,58.082 12.107,59.027 12.107,60.184 C12.107,61.328 11.166,62.283 10.012,62.283 Z M22.29,62.283 C21.139,62.283 20.198,61.328 20.198,60.184 C20.198,59.027 21.139,58.082 22.29,58.082 C23.447,58.082 24.386,59.027 24.386,60.184 C24.386,61.328 23.447,62.283 22.29,62.283 Z M22.29,62.283" id="train--body-grey" fill="#67737B" sketch:type="MSShapeGroup"></path>
        <path d="M11.9278421,23.731 L20.0721579,23.731 L20.0721579,23.731 L23.813,28.25 C24.078,28.662 24.545,28.922 25.041,28.922 C25.84,28.922 26.5,28.256 26.5,27.461 C26.5,27.158 26.403,26.855 26.227,26.615 L23.5230081,23.731 L23.768,23.731 C25.277,23.731 26.5,22.674 26.5,21.4 L26.5,15.437 L24.527,4.328 C24.527,3.047 23.299,2 21.793,2 L9.918,2 C8.41,2 7.181,3.047 7.181,4.328 L5.588,15.369 L5.588,21.4 C5.588,22.674 6.815,23.731 8.321,23.731 L8.47702416,23.731 L5.774,26.615 C5.597,26.855 5.5,27.158 5.5,27.461 C5.5,28.256 6.16,28.922 6.959,28.922 C7.455,28.922 7.922,28.662 8.187,28.25 L11.9278421,23.731 Z M9.565,5.371 C9.565,4.725 10.174,4.215 10.929,4.215 L20.778,4.215 C21.529,4.215 22.145,4.725 22.145,5.371 L24.115,15.66 C24.115,16.295 23.512,16.828 22.758,16.828 L9.329,16.828 C8.576,16.828 7.967,16.295 7.967,15.66 L9.565,5.371 Z M10.012,22.283 C8.855,22.283 7.913,21.328 7.913,20.184 C7.913,19.027 8.855,18.082 10.012,18.082 C11.166,18.082 12.107,19.027 12.107,20.184 C12.107,21.328 11.166,22.283 10.012,22.283 Z M22.29,22.283 C21.139,22.283 20.198,21.328 20.198,20.184 C20.198,19.027 21.139,18.082 22.29,18.082 C23.447,18.082 24.386,19.027 24.386,20.184 C24.386,21.328 23.447,22.283 22.29,22.283 Z M22.29,22.283" id="train--title-grey" fill="#3A434E" sketch:type="MSShapeGroup"></path>
    </g>
</svg>
